X: 1
T: Bride of the Winds
C: Jim Magill
R: Jig
Z: 2011 John Chambers <jc:trillian.mit.edu>
M: 6/8
L: 1/8
K: C
e | "C"g^fg agf | gec G2c | "G7"BdB GAB |1,3 "C"cBA G2 :|2,4 "C"c3 z2 :|
G |:"C"GEG cBc | "F"ABA "D7"d2c |1,3 "G7"Bgg g^fg | "C"ag^f gec :|2,4 "G7"Bgg age | "C"c3 z2 :|
